build/svg/cmd/sc_hide.svg

<?xml version="1.0" encoding="UTF-8" standalone="no"?>
<svg
   xmlns:dc="http://purl.org/dc/elements/1.1/"
   xmlns:cc="http://creativecommons.org/ns#"
   xmlns:rdf="http://www.w3.org/1999/02/22-rdf-syntax-ns#"
   xmlns:svg="http://www.w3.org/2000/svg"
   xmlns="http://www.w3.org/2000/svg"
   xmlns:sodipodi="http://sodipodi.sourceforge.net/DTD/sodipodi-0.dtd"
   xmlns:inkscape="http://www.inkscape.org/namespaces/inkscape"
   viewBox="0 0 16 16"
   version="1.1"
   id="svg4"
   sodipodi:docname="sc_hide.svg"
   inkscape:export-filename="/home/jupiter007/Libreoffice yaru theme fullcolor/build/cmd/sc_hide.png"
   inkscape:export-xdpi="95"
   inkscape:export-ydpi="95"
   inkscape:version="0.92.5 (2060ec1f9f, 2020-04-08)"><metadata
   id="metadata10">
  <rdf:RDF>
    <cc:Work
       rdf:about="">
      <dc:format>image/svg+xml</dc:format>
      <dc:type
         rdf:resource="http://purl.org/dc/dcmitype/StillImage" />
    </cc:Work>
  </rdf:RDF>
</metadata>
<defs
   id="defs8" />
<sodipodi:namedview
   pagecolor="#ffffff"
   bordercolor="#666666"
   borderopacity="1"
   objecttolerance="10"
   gridtolerance="10"
   guidetolerance="10"
   inkscape:pageopacity="0"
   inkscape:pageshadow="2"
   inkscape:window-width="1920"
   inkscape:window-height="1011"
   id="namedview6"
   showgrid="true"
   inkscape:zoom="20.85965"
   inkscape:cx="3.7866107"
   inkscape:cy="10.144574"
   inkscape:window-x="0"
   inkscape:window-y="32"
   inkscape:window-maximized="1"
   inkscape:current-layer="svg4">
  <inkscape:grid
     type="xygrid"
     id="grid829" />
</sodipodi:namedview>
/&gt;<path
   sodipodi:nodetypes="sssss"
   inkscape:connector-curvature="0"
   id="path839"
   d="M 7.9999999,2.9999999 C 11.865993,2.9999999 15,5.7908609 15,8.0000001 15,10.209139 11.865993,13 7.9999999,13 4.1340069,13 1.0000001,10.209139 1.0000001,8.0000001 c 0,-2.2091392 3.1340068,-5.0000002 6.9999998,-5.0000002 z"
   style="opacity:0.6;fill:#000000;fill-opacity:1;stroke:#000000;stroke-width:2;stroke-linecap:round;stroke-linejoin:round;stroke-miterlimit:4;stroke-dasharray:none;stroke-opacity:1" />
<path
   style="opacity:1;fill:#ffffff;fill-opacity:1;stroke:none;stroke-width:2;stroke-linecap:round;stroke-linejoin:round;stroke-miterlimit:4;stroke-dasharray:none;stroke-opacity:1"
   d="M 7.9999999,2.9999999 C 11.865993,2.9999999 15,5.7908609 15,8.0000001 15,10.209139 11.865993,13 7.9999999,13 4.1340069,13 1.0000001,10.209139 1.0000001,8.0000001 c 0,-2.2091392 3.1340068,-5.0000002 6.9999998,-5.0000002 z"
   id="path826"
   inkscape:connector-curvature="0"
   sodipodi:nodetypes="sssss" />
<path
   d="m 7.9999999,5.9999999 c -1.104569,0 -2,0.8954302 -2,2.0000002 0,1.104569 0.895431,1.9999999 2,1.9999999 1.10457,0 2,-0.8954309 2,-1.9999999 0.02896,-0.194894 0.02896,-0.392997 0,-0.587891 -0.174008,0.38903 -0.575449,0.625033 -1,0.587891 -0.552284,0 -1,-0.447716 -1,-1 -0.03682,-0.425027 0.200049,-0.826612 0.589844,-1.0000002 -0.195534,-0.029152 -0.39431,-0.029152 -0.589844,0 z"
   id="path2"
   inkscape:connector-curvature="0"
   style="fill:#232629"
   sodipodi:nodetypes="csscccccc" />
<path
   inkscape:connector-curvature="0"
   style="opacity:1;fill:#232629;fill-opacity:1;stroke:none;stroke-width:2;stroke-linecap:round;stroke-linejoin:round;stroke-miterlimit:4;stroke-dasharray:none;stroke-opacity:1"
   d="M 7.9999999,3.9999999 A 4,4 0 0 0 4.0000001,8.0000001 4,4 0 0 0 7.9999999,12 4,4 0 0 0 12,8.0000001 4,4 0 0 0 7.9999999,3.9999999 Z m 0,1 A 3,3 0 0 1 11,8.0000001 3,3 0 0 1 7.9999999,11 3,3 0 0 1 5.0000001,8.0000001 3,3 0 0 1 7.9999999,4.9999999 Z"
   id="path833" />
<rect
   transform="rotate(45)"
   y="-8"
   x="10.813708"
   height="16"
   width="1"
   id="rect833"
   style="opacity:0.6;fill:#000000;fill-opacity:1;fill-rule:evenodd;stroke:#000000;stroke-width:2;stroke-linecap:butt;stroke-linejoin:round;stroke-miterlimit:4;stroke-dasharray:none;stroke-opacity:1" />
<rect
   style="opacity:1;fill:#ffffff;fill-opacity:1;fill-rule:evenodd;stroke:none;stroke-width:2;stroke-linecap:butt;stroke-linejoin:round;stroke-miterlimit:4;stroke-dasharray:none;stroke-opacity:1"
   id="rect831"
   width="1"
   height="16"
   x="10.813708"
   y="-8"
   transform="rotate(45)" />
</svg>

<svg xmlns="http://www.w3.org/2000/svg" viewBox="0 0 16 16">/&gt;<path d="M8 3c3.866 0 7 2.79 7 5s-3.134 5-7 5-7-2.79-7-5 3.134-5 7-5z" opacity=".6" stroke="#000" stroke-width="2" stroke-linecap="round" stroke-linejoin="round"/><path d="M8 3c3.866 0 7 2.79 7 5s-3.134 5-7 5-7-2.79-7-5 3.134-5 7-5z" fill="#fff"/><path d="M8 6a2 2 0 102 2 2 2 0 000-.588A1 1 0 019 8a1 1 0 01-1-1 1 1 0 01.59-1A2 2 0 008 6z" fill="#232629"/><path d="M8 4a4 4 0 00-4 4 4 4 0 004 4 4 4 0 004-4 4 4 0 00-4-4zm0 1a3 3 0 013 3 3 3 0 01-3 3 3 3 0 01-3-3 3 3 0 013-3z" fill="#232629"/><path opacity=".6" fill-rule="evenodd" stroke="#000" stroke-width="2" stroke-linejoin="round" d="M13.304 1.99l.707.707L2.697 14.01l-.707-.707z"/><path fill="#fff" fill-rule="evenodd" d="M13.304 1.99l.707.707L2.697 14.01l-.707-.707z"/></svg>
